X: 11378
T: Earl's Chair, The
R: reel
M: 4/4
K: Dmajor
B2 dB BAFA|B2dB BAFB|AFF2 DFF2|AFdB ADFA|
B2dB BAFA|B2dB BAFB|AFAB defd|1 edef d3A:|2 edef d3f||
|:e3f d2df|edef dBAf|e3f d2de|fedB ABdf|
edef eBB2|gBB2 defg|afbf afeg|1 fedB ABdf:|2 fedB ADFA||

